X:1
T:Title
%%score 1 { 2 | 3 }
L:1/8
Q:1/4=95
M:6/8
K:Bb
V:1 treble nm="Grand Piano, Soprano"
V:2 bass nm="Choir Pad, Jesus, Strong to Deliver"
V:3 bass 
V:1
 [DB][CA][DB] [EG][EB][EG] | [DF]3 [B,D]3 | [DB][DB][DB] [FB][EA][DB] | [Fc]6 | %4
w: By~J.~P.~Weston * * * * *||||
 [Fd][Fc][Fd] [Ff]2 [Fd]/[^Fc]/ | [GB][EG][FA] [FB]3 | [Fd][Ge][Fd] [Ec][EG][EA] | [DB]6 | %8
w: ||||
 [B,D][CE][_D=E] [=DF][DB][_Ec] | [Fd]3 [Fd]3 | [Fd][Fe][Fd] [Fc]3 | [Ec][Ed][Ec] [DB]3 | %12
w: ||||
 [B,D][CE][_D=E] [=DF][DB][_Ec] | [Fd]3 [Fd]3 | [Fd][Fe][Fd] [Fc][Fd][Ec] | [DB]6- | [DB]3 z3 |] %17
w: |||||
V:2
 B,B,B, B,B,B, | B,3 F,3 | F,F,F, F,F,B, | A,6 | B,B,B, B,2 B,/B,/ | G,B,[K:treble]E D3 | %6
 DB,B,[K:bass] A,B,C | B,6 | F,F,F, F,F,A, | B,3 B,3 | B,CA, A,3 | A,B,A, B,3 | F,F,F, F,F,A, | %13
 B,3 B,3 | B,CB, A,B,A, | B,6- | B,3 z3 |] %17
V:3
 B,,B,,B,, E,G,E, | B,,3 B,,3 | B,,B,,B,, D,C,B,, | F,6 | B,,B,,B,, D,2 B,,/D,/ | E,E,C, B,,3 | %6
 F,F,F, F,F,F, | B,,6 | B,,B,,B,, B,,B,,F, | z3 B,,3 | F,F,F, F,3 | F,F,F, B,,3 | %12
 B,,B,,B,, B,,B,,F, | z3 B,,3 | F,F,F, F,F,F, | B,,6- | B,,3 z3 |] %17

